X:1
T:Title
%%score { 1 | 2 }
L:1/8
M:4/4
K:Bb
V:1 treble nm="Grand Piano"
V:2 bass 
V:1
 z4 z2[Q:1/4=100] [B,D][CE] | [DF]2 [DF]2 [EG]2 [EA][EA] | [DB]2 [EB]2 [DF]2 [DF][DF] | %3
 G2 GG A2 F2 | [DB]6 [B,D][CE] | [DF]2 [DF]2 [EG]2 [EA][EA] | [DB]2 [EB]2 [B,DF]2 [DFB][DFB] | %7
 [=EB]2 [EG]2 [EA]2 [EB]2 | [Ec]6 z2 | [Fd]2 [Fd]>[DB] [DF]2 [DF][DF] | G<B B2 F3 [B,DF] | %11
 [DFB]2 [CEB][B,DB] [DB]2 [EA][FB] | c6 cc | d2 d2 c2 A[FA] | %14
[M:9/8] [FB]2 [B,D]- [B,D] [DF]2- [DF][DF][DF] |[M:4/4] G2 c2 c<B A2 |[M:3/4] [DB]6 |] %17
V:2
 z4 z2 [B,,F,][B,,F,] | [B,,B,]2 [B,,B,]2 [B,,B,]2 [B,,F,]2 | %2
 [B,,F,]2 [B,,G,]2 [B,,B,]2 [B,,B,][B,,B,] | [E,B,E]2 [E,B,E][E,B,E] [F,E]2 [F,A,E]2 | %4
 [B,,B,]6 [B,,F,][B,,F,] | [B,,B,]2 [B,,B,]2 [B,,B,]2 [B,,F,][B,,F,] | %6
 [B,,F,]2 [B,,G,]2 B,,2 B,,B,, | [C,C]2 [C,C]2 [C,C]2 [C,G,]2 | [F,A,]6 z2 | %9
 [B,,B,]2 [B,,B,]>[B,,F,] [B,,B,]2 [B,,B,][B,,B,] | [E,B,E]<[E,G,E] [E,G,E]2 [B,D]3 B,, | %11
 B,,2 B,,B,, [B,,F,]2 [C,F,][D,B,] | [F,A,F]6 [F,A,F][F,A,F] | %13
 [B,F]2 [B,F]2[K:bass] [F,A,F]2 [F,CF][E,C] | %14
[M:9/8] [D,B,]2 [B,,F,]- [B,,F,] [B,,B,]2- [B,,B,][B,,B,][B,,B,] | %15
[M:4/4] [E,B,E]2 [E,B,E]2 [F,B,D]<[F,D] [F,C]2 |[M:3/4] [B,,F,]6 |] %17

